!!!!SEGMENT: pl-wtm--r-1405--003_stefani-jozef--andante.krn
!!!cenid: 18xx:1876
!!!COM: Stefani, Józef
!!!COM-rismID: pe30024097
!!!CDT: 1800/04/16-1876/03/19
!!!CNT: Polish
!!!OTL: Andante
!!!PDT:
!!!AGN: Secular
!!!SMS-siglum: PL-Wtm
!!!SMS-shelfmark: R 1405
!!!SMS-shelfwork: 003 W
!!!SMS-variant:
!!!SMS-altvar:
!!!NIFC-rismSourceID: 1001117992
!!!NIFC-islandoraID: pl-wtm:25472
!!!URL-pdf-islandora: https://repozytorium.nifc.pl/islandora/object/pl-wtm%3A25472/datastream/PDF/view
!!!URL-scan: https://polish.musicsources.pl/pl/lokalizacje/galeria/rekopisy/6235 @EN{Scan on Polish Music Sources Website} @PL{Skany w portalu Dziedzictwo Muzyki Polskiej w otwartym dostępie}
!!!ONB-nifc: UWAGA: skan 0003-0004, str. 3-4
!!!AIN: 2 piano
!!!key:
**kern	**kern	**dynam
*part2	*part1	*
*staff2	*staff1	*
*Ipiano	*Ipiano	*
*I"[Piano]	*I"[Piano]	*
*I'[pf]	*I'[pf]	*
*clefF4	*clefG2	*
*k[f#c#]	*k[f#c#]	*
*D:	*D:	*
*M6/8	*M6/8	*
*>[A,B,C,C1,C,C2,D]	*>[A,B,C,C1,C,C2,D]	*
=	=	=
*>A	*>A	*
!	!LO:TX:a:t=P:problem=all\right&colon; global	!
!	!LO:TX:a:i:t=Andante	!LO:DY:b:rj
8r	8A</	p
=1	=1	=1
4D\ 4DD\	4f# 4A</	.
8D\ 8DD\	8f# 8A</	.
.	8qa/	.
4D\ 4DD\	4g 4B</	.
8D\ 8DD\	8f# 8A</	.
=2	=2	=2
4D\ 4DD\	4e#X 4G#X</	.
8D\ 8DD\	8f# 8A</	.
4D\ 4DD\	4d 4F#</	.
8D\ 8DD\	8f# 8A</	.
=3	=3	=3
*	*^	*
.	(<8qf#/	.	.
4G\ 4GG\	4e/	4B\)	.
8G\ 8GG\	8d#X/	8B\	.
4G#X\ 4GG#X\	4e/	4B\	.
8G#\ 8GG#\	8dn/	8B\	.
=4	=4	=4	=4
4A 4AA\	[<8c#/L	4.ryy	.
.	16c#/L]	.	.
.	16d 16B/	.	.
8A 8AA\	16e 16c#/	.	.
.	16f#JJ 16d/	.	.
4A 4AA\	4e/	4c#\	.
8A 8AA\	8e#X/	8c#\	.
*	*v	*v	*
!!LO:LB:g=original
=5	=5	=5
*^	*	*
4A\ 4D\	4ryy	4f# 4d/	.
8A\ 8D\	8ryy	8f# 8d/	.
.	.	8qa/	.
8B/L	4D\	4g 4d/	.
8B-X/	.	.	.
8A/J	8D\	8f# 8d/	.
=6	=6	=6	=6
*	*	*^	*
!	!	!	!LO:N:vis=4.	!
4Bn 4G#X/	4D\	4e#X/	4d\	.
8A/	8D\	8f#/	8d\	.
4F#/	4D\	4d/	4.ryy	.
8r	8ryy	8f#/	.	.
*	*	*v	*v	*
*v	*v	*	*
=7	=7	=7
8AL 8F# 8C#\	8.a|</L	.
8r	.	.
.	16g#X|</K	.
8AJ 8F# 8C#\	8f#|</J	.
8BL 8E#X 8C#\	8cc#|</L	.
8r	(<8g#/	.
8BJ 8E# 8C#\	8a/J)	.
=8	=8	=8
8AL 8F# 8C#\	8f#/L	.
8r	16e#X/L	.
.	16f#/	.
8BJ 8E# 8C#\	16a/	.
.	16g#X/JJ	.
8A 8F#\	16f#/	.
.	16a|</	.
8r	(<16b'</LL	.
.	16cc#'</	.
8r	16dd'</	.
.	16ee'</JJ)	.
!!LO:LB:g=original
=9	=9	=9
16D\LL	4ff# 4dd 4a\	.
16F#\	.	.
16A\	.	.
16d\	.	.
16D\	8ff# 8dd 8a\	.
16d\JJ	.	.
.	8qaa/	.
16D\LL	4gg 4dd 4b\	.
16G#X\	.	.
16B\	.	.
16d\	.	.
16D\	8ff# 8dd 8a\	.
16d\JJ	.	.
=10	=10	=10
16D\LL	4ee#X 4dd 4g#X\	.
16G#X\	.	.
16B\	.	.
16d\	.	.
16D\	8ff# 8dd 8a\	.
16d\JJ	.	.
16D\LL	4dd 4a 4f#/	.
16F#\	.	.
16A\	.	.
16d\	.	.
16D\	8ff# 8dd 8a\	.
16d\JJ	.	.
=11	=11	=11
.	8qff#/	.
16G\LL	4ee 4b\	.
16B\	.	.
16e\	.	.
16B\	.	.
16G\	8dd#X 8b\	.
16B\JJ	.	.
16G#X\LL	4ee 4b\	.
16B\	.	.
16e\	.	.
16B\	.	.
16G#\	8ddn 8b 8e\	.
16B\JJ	.	.
=12	=12	=12
8A\L	8cc# 8a 8e/	.
8r	(>16cc#LL 16a\	.
.	16dd 16b\	.
8A\J	16ee 16cc#\	.
.	16ff#JJ 16dd\	.
4AA/	4ee 4cc#\)	.
8r	8ee#X 8cc#\	.
!!LO:LB:g=original
=13	=13	=13
*	*^	*
16D\LL	4ff#\ 4dd\ 4a\	4ryy	.
16F#\	.	.	.
16A\	.	.	.
16d\	.	.	.
16D\	8ff#\ 8dd\ 8a\	8ryy	.
16d\JJ	.	.	.
.	8qaa/	.	.
16D\LL	4gg 4dd/	8b\L	.
16G\	.	.	.
16B-X\	.	8b-X\J	.
16d\	.	.	.
16D\	8ff# 8dd/	8a\	.
16d\JJ	.	.	.
*	*v	*v	*
=14	=14	=14
16D\LL	4ee#X/ 4dd/ 4g#X/	.
16G#X\	.	.
16Bn\	.	.
16d\	.	.
16D\	8ff# 8dd 8a\	.
16d\JJ	.	.
16D\LL	4dd 4a 4f#/	.
16F#\	.	.
16A\	.	.
16d\	.	.
16D\	8ff# 8dd 8a\	.
16d\JJ	.	.
=15	=15	=15
!	!	!LO:DY:b:rj
.	(<16qqee/LL	p
.	16qqff#/JJ)	.
8c#L 8A 8E\	(>8ee\L	.
8r	16cc#\Jk)	.
.	16r	.
8c#J 8A 8E\	8aa'> 8a\	.
.	(<16qqdd/LL	.
.	16qqee/JJ)	.
8dL 8B 8G#X 8E\	(>8dd\L	.
8r	16b\Jk)	.
.	16r	.
8dJ 8B 8G# 8E\	8ee'>\	.
=16	=16	=16
8c#L 8A\	8a'>\L	.
8r	(>16g#X\L	.
.	16a\	.
8c#J 8A\	16cc#\	.
.	16ee\JJ)	f
4A 4E 4AA\	4aa 4ee 4cc# 4a\	.
8r	8a/	.
!!LO:LB:g=original
=17	=17	=17
*clefG2	*	*
*tremolo	*	*
!LO:TX:i:a:t=tremol	!	!
32eL 32d 32B-X/	(>4ggT>\	.
32g/	.	.
32e 32d 32B-/	.	.
32g/	.	.
32e 32d 32B-/	.	.
32g/	.	.
32e 32d 32B-/	.	.
32g/	.	.
32e 32d 32B-/	8ee\)	.
32g/	.	.
32e 32d 32B-/	.	.
32g/J	.	.
32eL 32c# 32A/	(>4ggT>\	.
32g/	.	.
32e 32c# 32A/	.	.
32g/	.	.
32e 32c# 32A/	.	.
32g/	.	.
32e 32c# 32A/	.	.
32g/	.	.
32e 32c# 32A/	8ee\)	.
32g/	.	.
32e 32c# 32A/	.	.
32g/J	.	.
=18	=18	=18
*clefF4	*	*
!	!	!LO:DY:b:rj
32ALLL 32F# 32D\	(>8.ff#\L	f
32d\	.	.
32A 32F# 32D\	.	.
32d\	.	.
32A 32F# 32D\	.	.
32d\	.	.
32A 32F# 32D\	16cc#\L	.
32d\	.	.
32A 32F# 32D\	16dd\	.
32d\	.	.
32A 32F# 32D\	16bb\JJ)	.
32d\JJJ	.	.
32c#LLL 32A\	(>4aa'>\	.
32e\	.	.
32c# 32A\	.	.
32e\	.	.
32c# 32A\	.	.
32e\	.	.
32c# 32A\	.	.
32e\	.	.
32c# 32A\	8ee\)	.
32e\	.	.
32c# 32A\	.	.
32e\JJJ	.	.
=19	=19	=19
*clefG2	*	*
(<32eLLL 32d 32B-X/	(>4ggT>\	.
32g/	.	.
32e 32d 32B-/	.	.
32g/	.	.
32e 32d 32B-/	.	.
32g/	.	.
32e 32d 32B-/	.	.
32g/	.	.
32e 32d 32B-/	8ee\)	.
32g/	.	.
32e 32d 32B-/	.	.
32g/JJJ)	.	.
32eL 32c# 32A/	(>4ggT>\	.
32g/	.	.
32e 32c# 32A/	.	.
32g/	.	.
32e 32c# 32A/	.	.
32g/	.	.
32e 32c# 32A/	.	.
32g/	.	.
32e 32c# 32A/	8ee\)	.
32g/	.	.
32e 32c# 32A/	.	.
32g/J	.	.
=20	=20	=20
*clefF4	*	*
32ALLL 32F# 32D\	8.ff#\L	.
32d\	.	.
32A 32F# 32D\	.	.
32d\	.	.
32A 32F# 32D\	.	.
32d\	.	.
32A 32F# 32D\	16cc#\L	.
32d\	.	.
32A 32F# 32D\	16dd\	.
32d\	.	.
32A 32F# 32D\	16ff#\JJ	.
32d\JJJ	.	.
*Xtremolo	*	*
8e 8c# 8A\	16aa 16a\	.
.	32r	.
.	32a/	.
8r	(>16b\LL	.
.	16cc#\	.
8r	16dd\	.
.	16ee\JJ	.
=21	=21	=21
*	*tremolo	*
!	!LO:TX:i:a:t=tremol	!
16D\LL	64ff#LLLL 64dd\)	.
.	64a\	.
.	64ff# 64dd\	.
.	64a\	.
16F#\	64ff# 64dd\	.
.	64a\	.
.	64ff# 64dd\	.
.	64a\	.
16A\	64ff# 64dd\	.
.	64a\	.
.	64ff# 64dd\	.
.	64a\	.
16d\	64ff# 64dd\	.
.	64a\	.
.	64ff# 64dd\	.
.	64a\	.
16D\	64ff# 64dd\	.
.	64a\	.
.	64ff# 64dd\	.
.	64a\	.
16d\JJ	64ff# 64dd\	.
.	64a\	.
.	64ff# 64dd\	.
.	64a\JJJJ	.
!!LO:LB:g=original
*	*Xtremolo	*
16D\LL	(>64ggLLLL 64dd\	.
.	64b\	.
.	64gg 64dd\	.
.	64b\	.
16G\	64gg 64dd\	.
.	64b\	.
.	64gg 64dd\	.
.	64b\JJJJ)	.
*	*rep	*
16B\	(>64ggL 64dd\	.
.	64b\	.
.	64gg 64dd\	.
.	64b\	.
16d\	64gg 64dd\	.
.	64b\	.
.	64gg 64dd\	.
.	64b\J)	.
*	*Xrep	*
16D\	(>64ff#LLLL 64dd\	.
.	64a\	.
.	64ff# 64dd\	.
.	64a\	.
16d\JJ	64ff# 64dd\	.
.	64a\	.
.	64ff# 64dd\	.
.	64a\JJJJ)	.
=22	=22	=22
!	!	!LO:DY:b:rj
16D^>\LL	(>64ee#XLLLL 64dd\	sf
.	64g#X\	.
.	64ee# 64dd\	.
.	64g#\	.
16G#X\	64ee# 64dd\	.
.	64g#\	.
.	64ee# 64dd\	.
.	64g#\JJJJ	.
*	*rep	*
16B\	64ee#XLLLL 64dd\	.
.	64g#\	.
.	64ee# 64dd\	.
.	64g#\	.
16d\	64ee# 64dd\	.
.	64g#\	.
.	64ee# 64dd\	.
.	64g#\JJJJ	.
*	*Xrep	*
16D\	(>64ff#LLLL 64dd\)	.
.	64a\	.
.	64ff# 64dd\	.
.	64a\	.
16d\JJ	64ff# 64dd\	.
.	64a\	.
.	64ff# 64dd\	.
.	64a\JJJJ	.
16D\LL	64ddLLLL 64a\	.
.	64f#\	.
.	64dd 64a\	.
.	64f#\	.
16F#\	64dd 64a\	.
.	64f#\	.
.	64dd 64a\	.
.	64f#\JJJJ)	.
*	*rep	*
16A\	64ddLLLL 64a\	.
.	64f#\	.
.	64dd 64a\	.
.	64f#\	.
16d\	64dd 64a\	.
.	64f#\	.
.	64dd 64a\	.
.	64f#\JJJJ	.
*	*Xrep	*
16D\	(>64ff#LLLL 64dd\	.
.	64a\	.
.	64ff# 64dd\	.
.	64a\	.
16d\JJ	64ff# 64dd\	.
.	64a\	.
.	64ff# 64dd\	.
.	64a\JJJJ)	.
=23	=23	=23
!	!LO:TX:a:t=P:problem=łuk nie wyświetla się	!
16G\LL	(>64ee\LLLL	.
.	64b\	.
.	64ee\	.
.	64b\	.
16B\	64ee\	.
.	64b\	.
.	64ee\	.
.	64b\JJJJ	.
*	*rep	*
16e\	64ee\LLLL	.
.	64b\	.
.	64ee\	.
.	64b\	.
16B\	64ee\	.
.	64b\	.
.	64ee\	.
.	64b\JJJJ)	.
*	*Xrep	*
16G\	(>64dd#X\LLLL	.
.	64b\	.
.	64dd#\	.
.	64b\	.
16B\JJ	64dd#\	.
.	64b\	.
.	64dd#\	.
.	64b\JJJJ)	.
!!LO:LB:g=original
16G#X\LL	(>64ee\LLLL	.
.	64b\	.
.	64ee\	.
.	64b\	.
16B\	64ee\	.
.	64b\	.
.	64ee\	.
.	64b\JJJJ)	.
*	*rep	*
16e\	(>64ee\LLLL	.
.	64b\	.
.	64ee\	.
.	64b\	.
16B\	64ee\	.
.	64b\	.
.	64ee\	.
.	64b\JJJJ)	.
*	*Xrep	*
16G#\	(>64ddn\LLLL	.
.	64b\	.
.	64dd\	.
.	64b\	.
16B\JJ	64dd\	.
.	64b\	.
.	64dd\	.
.	64b\JJJJ)	.
=24	=24	=24
8A\L	(>64cc#\LLLL	.
.	64a\	.
.	64cc#\	.
.	64a\	.
.	64cc#\	.
.	64a'>\	.
.	64cc#\	.
.	64a\JJJJ	.
8r	64cc#\LLLL	.
.	64a\	.
.	64cc#\	.
.	64a\	.
.	64dd\	.
.	64b\	.
.	64dd\	.
.	64b\JJJJ	.
8A\J	64ee\LLLL	.
.	64cc#\	.
.	64ee\	.
.	64cc#\	.
.	64ff#\	.
.	64dd\	.
.	64ff#\	.
.	64dd\JJJJ)	.
8AA/	(>64ee\LLLL	.
.	64cc#\	.
.	64ee\	.
.	64cc#\	.
.	64ee\	.
.	64cc#\	.
.	64ee\	.
.	64cc#\JJJJ	.
*	*rep	*
8r	64ee\LLLL	.
.	64cc#\	.
.	64ee\	.
.	64cc#\	.
.	64ee\	.
.	64cc#\	.
.	64ee\	.
.	64cc#\JJJJ	.
*	*Xrep	*
8A\ 8AA\	64ee#\LLLL	.
.	64cc#\	.
.	64ee#\	.
.	64cc#\	.
.	64ee#\	.
.	64cc#\	.
.	64ee#\	.
.	64cc#\JJJJ)	.
=25	=25	=25
*	*tremolo	*
16D\LL	(>64ff#LLLL 64dd\	.
.	64a\	.
.	64ff# 64dd\	.
.	64a\	.
16F#\	64ff# 64dd\	.
.	64a\	.
.	64ff# 64dd\	.
.	64a\	.
16A\	64ff# 64dd\	.
.	64a\	.
.	64ff# 64dd\	.
.	64a\	.
16d\	64ff# 64dd\	.
.	64a\	.
.	64ff# 64dd\	.
.	64a\	.
16D\	64ff# 64dd\	.
.	64a\	.
.	64ff# 64dd\	.
.	64a\	.
16d\JJ	64ff# 64dd\	.
.	64a\	.
.	64ff# 64dd\	.
.	64a\JJJJ)	.
*	*Xtremolo	*
16D\LL	64ggLLLL 64dd\	.
.	64b\	.
.	64gg 64dd\	.
.	64b\	.
16G\	64gg 64dd\	.
.	64b\	.
.	64gg 64dd\	.
.	64b\JJJJ	.
*	*rep	*
16B\	64ggLLLL 64dd\	.
.	64b\	.
.	64gg 64dd\	.
.	64b\	.
16d\	64gg 64dd\	.
.	64b\	.
.	64gg 64dd\	.
.	64b\JJJJ	.
*	*Xrep	*
16D\	64ff#LLLL 64dd\	.
.	64a\	.
.	64ff# 64dd\	.
.	64a\	.
16d\JJ	64ff# 64dd\	.
.	64a\	.
.	64ff# 64dd\	.
.	64a\JJJJ	.
!!LO:LB:g=original
=26	=26	=26
!	!	!LO:DY:b:rj
16D^>\LL	64ee#XLLLL 64dd\	sf
.	64g#X\	.
.	64ee# 64dd\	.
.	64g#\	.
16G#X\	64ee# 64dd\	.
.	64g#\	.
.	64ee# 64dd\	.
.	64g#\JJJJ	.
*	*rep	*
16Bn\	64ee#XLLLL 64dd\	.
.	64g#X\	.
.	64ee# 64dd\	.
.	64g#\	.
16d\	64ee# 64dd\	.
.	64g#\	.
.	64ee# 64dd\	.
.	64g#\JJJJ	.
*	*Xrep	*
16D\	64ff#LLLL 64dd\	.
.	64a\	.
.	64ff# 64dd\	.
.	64a\	.
16d\JJ	64ff# 64dd\	.
.	64a\	.
.	64ff# 64dd\	.
.	64a\JJJJ	.
16D\LL	64ddLLLL 64a\	.
.	64f#\	.
.	64dd 64a\	.
.	64f#\	.
16F#\	64dd 64a\	.
.	64f#\	.
.	64dd 64a\	.
.	64f#\JJJJ	.
*	*rep	*
16A\	64ddLLLL 64a\	.
.	64f#\	.
.	64dd 64a\	.
.	64f#\	.
16d\	64dd 64a\	.
.	64f#\	.
.	64dd 64a\	.
.	64f#\JJJJ	.
*	*Xrep	*
16D\	64ff#LLLL 64dd\	.
.	64a\	.
.	64ff# 64dd\	.
.	64a\	.
16d\JJ	64ff# 64dd\	.
.	64a\	.
.	64ff# 64dd\	.
.	64a\JJJJ	.
=27	=27	=27
*	*^	*
16GG\LL	16.ff#/LL	8b\	.
16BB\	.	.	.
.	32dd#X/JJk	.	.
16E\	8ee/L	8b-X\L	.
16G\JJ	.	.	.
!LO:TX:a:t=P:mixedbeam:problem	!	!	!
16GG/LL	8b-X/J	8g\J	.
16G\JJ	.	.	f
16A\LL	16.a\ 6.f#\LL	16.ryy	.
16F#\	.	.	.
.	32dd#\ 32a\ 32f#\JJk	32ryy	.
16D\	8ff#\L 8dd#\ 8a\	4ryy	.
16AA\JJ	.	.	.
!LO:TX:a:t=P:problem=mixedbeam	!	!	!
16A\LL	8ee\J 8cc#\ 8a\ 8g\	.	.
16AA/JJ	.	.	.
*	*v	*v	*
=28	=28	=28
8D\	8dd 8a 8f#/	p
8r	8r	.
8A 8D\	8f# 8d/	.
4A 4D\	4a 4f#/	.
8A 8D\	8f# 8d/	.
!!LO:LB:g=original
=29	=29	=29
*tremolo	*	*
(>32dLLL 32B-X 32G\	8r	.
32e\	.	.
32d 32B- 32G\	.	.
32e\	.	.
32d 32B- 32G\	8.r	.
32e\	.	.
32d 32B- 32G\	.	.
32e\	.	.
32d 32B- 32G\	.	.
32e\	.	.
32d 32B- 32G\	16ee\	.
32e\JJJ	.	.
*Xtremolo	*	*
32c#LLL 32A\	8aa\L	.
32e\	.	.
32c# 32A\	.	.
32e\JJJ	.	.
*rep	*	*
32c#LLL 32A\	8ee\	.
32e\	.	.
32c# 32A\	.	.
32e\JJJ	.	.
*Xrep	*	*
32c#LLL 32A\	8ee#X\J	.
32e#\	.	.
32c# 32A\	.	.
32e#\JJJ	.	.
=30	=30	=30
8f# 8d\)	8ff#\	.
8r	8r	.
8A 8D\	8f# 8d/	.
4A 4D\	4a 4f#/	.
8A 8D\	8f# 8d/	.
=31	=31	=31
*tremolo	*	*
(>32dLLL 32B-X 32G\	8r	.
32e\	.	.
32d 32B- 32G\	.	.
32e\	.	.
32d 32B- 32G\	8.r	.
32e\	.	.
32d 32B- 32G\	.	.
32e\	.	.
32d 32B- 32G\	.	.
32e\	.	.
*	*8va	*
32d 32B- 32G\	16eee\	.
32e\JJJ)	.	.
(>32eLLL 32c# 32A\	16bbb-X\LL	.
32g\	.	.
32e 32c# 32A\	16aaa\JJ	.
32g\	.	.
32e 32c# 32A\	8ggg\L	.
32g\	.	.
32e 32c# 32A\	.	.
32g\	.	.
32e 32c# 32A\	8eee\J	.
32g\	.	.
32e 32c# 32A\	.	.
32g\JJJ)	.	.
*Xtremolo	*X8va	*
=32	=32	=32
*	*	*^
8f# 8d\	8ddd\ 8dd	.	.
8dL 8D\	64dddLLLL 64ff#\	.	.
.	64dd\	.	.
.	64ddd 64ff#\	.	.
.	64dd\	.	.
.	64ddd 64ff#\	.	.
!	!	!	!LO:HP:b
.	64dd\	.	<
.	64ddd 64ff#\	.	.
.	64dd\JJJJ	.	.
!	!	!LO:HP:b=2:t=cresc&colon;	!
*	*rep	*	*
8cnJ 8Cn\	64dddLLLL 64ff#\	<	.
.	64dd\	.	.
.	64ddd 64ff#\	.	.
.	64dd\	.	.
.	64ddd 64ff#\	.	.
.	64dd\	.	.
.	64ddd 64ff#\	.	.
.	64dd\JJJJ	.	.
*	*Xrep	*	*
8BL 8BB\	64dddLLLL 64gg\	.	.
.	64dd\	.	.
.	64ddd 64gg\	.	.
.	64dd\	.	.
.	64ddd 64gg\	.	.
.	64dd\	.	.
.	64ddd 64gg\	.	.
.	64dd\JJJJ	.	.
*	*rep	*	*
8B 8BB\	64dddLLLL 64gg\	.	.
.	64dd\	.	.
.	64ddd 64gg\	.	.
.	64dd\	.	.
.	64ddd 64gg\	.	.
.	64dd\	.	.
.	64ddd 64gg\	.	.
.	64dd\JJJJ	.	.
*	*Xrep	*	*
8B- 8BB-yJ\	64dddLLLL 64gg#X\	.	.
.	64dd\	.	.
.	64ddd 64gg#\	.	.
.	64dd\	.	.
.	64ddd 64gg#\	.	.
.	64dd\	.	.
.	64ddd 64gg#\	.	.
!	!LO:TX:b:t=P:problem=napis "V&colon; S&colon;" za kreską taktową	!	!
!	!LO:TX:b:i:t=V&colon; S&colon;	!	!
.	64dd\JJJJ	.	[
*	*	*v	*v
!!LO:PB:g=original
=33	=33	=33
!	!	!LO:DY:b:rj
8A\ 8AA\	8ddd 8aa 8ff# 8dd\	f
[>4f# [>4d [>4A\	(>32ddd\LLL	.
.	32ccc#\	.
.	32bb\	.
.	32aa\JJJ	.
.	32bb\LLL	.
.	32ccc#\	.
.	32ddd\	.
.	32eee\JJJ	.
4.f#] 4.d] 4.A\]	32fff#\LLL	.
.	32eee\	.
.	32ddd\	.
.	32ccc#\JJJ	.
.	32ddd\LLL	.
.	32ccc#\	.
.	32bb\	.
.	32aa\JJJ	.
.	32bb\LLL	.
.	32aa\	.
.	32gg\	.
.	32ff#\JJJ	.
=34	=34	=34
*tremolo	*	*
!	!	!LO:DY:b:t=ffo:rj
32dLLL 32B-X 32G\	4.eeT>\)	ff
32e\	.	.
32d 32B- 32G\	.	.
32e\	.	.
32d 32B- 32G\	.	.
32e\	.	.
32d 32B- 32G\	.	.
32e\	.	.
32d 32B- 32G\	.	.
32e\	.	.
32d 32B- 32G\	.	.
32e\JJJ	.	.
.	(<16qqdd#X/LL	.
.	16qqee/JJ)	.
32c#LLL 32A\	4.aaT>\	.
32e\	.	.
32c# 32A\	.	.
32e\	.	.
32c# 32A\	.	.
32e\	.	.
32c# 32A\	.	.
32e\	.	.
32c# 32A\	.	.
32e\	.	.
32c# 32A\	.	.
32e\JJJ	.	.
.	(<16qqgg#X/LL	.
.	16qqaa/JJ)	.
*Xtremolo	*	*
=35	=35	=35
8f# 8d\	8dd\	.
8r	8r	.
16r	16r	.
16G 16GG/	16bb-X 16gg 16dd 16b-X\	.
4G 4GG/	4bb- 4gg 4dd 4b-\	.
16r	16r	.
16cn 16Cn\	16ee 16ccn 16b- 16g\	.
*kcancel	*kcancel	*
!!LO:LB:g=original
=36	=36	=36
*>B	*>B	*
*clefF4	*clefG2	*
*k[b-]	*k[b-]	*
*M2/4	*M2/4	*
!	!LO:TX:a:t=P:kolejność:problem= klucze, znaki przykluczowe, metrum	!
8cn 8Cn;>\	8ee 8ccn 8b-X 8g;>\	.
8r	16r	.
.	16c/	.
4r	16dLL 16Bn'</	.
.	16e 16c'</	.
.	16f 16d'</	.
.	16gJJ 16e'</	.
=37	=37	=37
!	!	!LO:DY:b:rj
16F\LL	16a 16f'</L	p
16c\	16r	.
16A\	16cc|< 16a/J	.
16c\JJ	16r	.
!	!LO:TX:t=P:problem=diminuendolike accent	!
*rep	*	*
16F\LL	(>8dd^<L 8b-\	.
16c\	.	.
16A\	16ccJk 16a\)	.
16c\JJ	16r	.
*Xrep	*	*
=38	=38	=38
.	(>8qcc 8qa/	.
16F\LL	8aaL 8cc\)	.
16c\	.	.
16A\	16ggL 16b-'>\	.
16c\JJ	16ggJJ 16b-'>\	.
*rep	*	*
16F\LL	16ffLL 16a'>\	.
16c\	16r	.
16A\	16aJJ 16f'>\	.
16c\JJ	16r	.
*Xrep	*	*
=39	=39	=39
16C\LL	16g|<LL 16e/	.
16c\	16r	.
16G\	16b-|<JJ 16g/	.
16c\JJ	16r	.
.	(<16qqccLL 16qqa/	.
.	16qqddJJ 16qqb-/)	.
!	!LO:TX:t=P:problem=diminuendolike accent	!
*rep	*	*
16C\LL	8cc^<L 8a/	.
16c\	.	.
16G\	16b-Jk 16g/	.
16c\JJ	16r	.
*Xrep	*	*
!!LO:LB:g=original
=40	=40	=40
.	(>8qb- 8qg/	.
16C\LL	8ggL 8b-\)	.
16c\	.	.
16G\	16eeL 16g'>\	.
16c\JJ	16eeJJ 16g'>\	.
*rep	*	*
16C\LL	16cc|<LL 16e/	.
16c\	16r	.
16G\	16b-|<JJ 16g/	.
16c\JJ	16r	.
*Xrep	*	*
=41	=41	=41
16F\LL	16a|<LL 16f/	.
16c\	16r	.
16A\	16cc|<JJ 16a/	.
16c\JJ	16r	.
*rep	*	*
16F\LL	(>8ddL^< 8b-\	.
16c\	.	.
16A\	16ccJk 16a\)	.
16c\JJ	16r	.
*Xrep	*	*
=42	=42	=42
*rep	*	*
.	(>8qcc 8qa/	.
16F\LL	8aaL 8cc\)	.
16c\	.	.
16A\	16ggL 16b-'>\	.
16c\JJ	16ggJJ 16b-'>\	.
16F\LL	16ff|> 16a\L	.
16c\	16r	.
16A\	16cc|> 16a\J	.
16c\JJ	16r	.
*Xrep	*	*
=43	=43	=43
16BB-\LL	16dd|> 16b-\	.
16G\	16r	.
16D\	(>8bb-|> 8dd\L	.
16G\JJ	.	.
16C\LL	16cc 16a\)J	.
16A\	16r	.
16F\	(>8aa|> [>8cc\	.
16A\JJ	.	.
=44	=44	=44
16C\LL	16cc] 16b- 16g\)	.
16c\	16r	.
16G\	16ee 16cc 16b- 16g'>\	.
16c\JJ	16r	.
8F\	8ff|> 8cc 8a\	.
!!LO:LB:g=original
=!|:	=!|:	=!|:
*>C	*>C	*
!	!	!LO:DY:b:rj
8r	16eeLL 16cc'>\	mf
.	16ffJJ 16dd'>\	.
=45	=45	=45
16C\LL	8gg 8ee'>\	.
16G\	.	.
16E\	4ee^< 4cc'>\	.
16G\JJ	.	.
16C\LL	.	.
16G\	.	.
16F\	8ff 8dd'>\	.
16G\JJ	.	.
=46	=46	=46
16C\LL	8ggL 8ee'>\	.
16G\	.	.
.	(<16qqggLL 16qqee/	.
.	16qqaaJJ 16qqff/)	.
16E\	8gg 8ee\	.
16G\JJ	.	.
*rep	*	*
16C\LL	8ff 8dd'>\	.
16G\	.	.
16E\	8eeJ 8cc'>\	.
16G\JJ	.	.
*Xrep	*	*
=47	=47	=47
16GG\LL	8ffL 8dd'>\	.
16G\	.	.
.	(<16qqffLL 16qqdd/	.
.	16qqggJJ 16qqee/)	.
16D\	8ff 8dd\	.
16G\JJ	.	.
*rep	*	*
16GG\LL	8ee 8cc'>\	.
16G\	.	.
16D\	8ddJ 8bn'>\	.
16G\JJ	.	.
*Xrep	*	*
=48	=48	=48
16C\LL	16eeLL 16cc\	.
16G\	16gg\	.
16E\	16ccc\	.
16G\JJ	16eee\JJ	.
*rep	*tremolo	*
16C\LL	16ccc\LL	.
16G\	16ccc\	.
16E\	16ccc\	.
16G\JJ	16ccc\JJ	.
*Xrep	*Xtremolo	*
=49	=49	=49
16C\LL	8gg 8ee'>\	.
16G\	.	.
16E\	4ee^< 4cc'>\	.
16G\JJ	.	.
16C\LL	.	.
16G\	.	.
16F\	8ff 8dd'>\	.
16G\JJ	.	.
!!LO:LB:g=original
=50	=50	=50
16C\LL	16gg|> 16ee\	.
16G\	16r	.
.	(<16qqggLL 16qqee/	.
.	16qqaaJJ 16qqff/)	.
16E\	8ggL 8ee\	.
16G\JJ	.	.
*rep	*	*
16C\LL	8ff 8dd'>\	.
16G\	.	.
16E\	8eeJ 8cc'>\	.
16G\JJ	.	.
*Xrep	*	*
=51	=51	=51
16GG\LL	16ff|> 16dd\	.
16G\	16r	.
.	(16qqffLL 16qqdd/	.
.	16qqggJJ 16qqee/)	.
16D\	8ffL 8dd\	.
16G\JJ	.	.
16GG\LL	8ee 8cc'>\	.
16G\	.	.
16GG\	8ddJ 8bn'>\	.
16F\JJ	.	.
=52	=52	=52
!	!	!LO:DY:b:rj
8E 8C\	8cc\L	f
8r	16ddL 16b-X\	.
!	!	!LO:HP:b
.	16ddJJ 16b-\	>
4r	16ccLL 16a/	.
.	16r	.
.	16b-JJ 16g/	.
.	16r	] p
=53	=53	=53
16F\LL	16aLL 16f/	.
16c\	16r	.
16A\	16ccJJ 16a/	.
16c\JJ	16r	.
*rep	*	*
16F\LL	(>8dd^<L 8b-\	.
16c\	.	.
16A\	16ccJk 16a\)	.
16c\JJ	16r	.
*Xrep	*	*
!!LO:LB:g=original
=54	=54	=54
.	(>8qcc 8qa/	.
16F\LL	8aaL 8cc\)	.
16c\	.	.
16A\	16ggL 16b-'>\	.
16c\JJ	16ggJJ 16b-'>\	.
16F\LL	16ffLL 16a'>\	.
16c\	16r	.
16A\	16aJJ 16f'>\	.
16c\JJ	16r	.
=55	=55	=55
16C\LL	16gLL 16e/	.
16c\	16r	.
16G\	16b-JJ 16g'</	.
16c\JJ	16r	.
!	!LO:TX:t=P:problem=diminuendolike accent	!
.	(<16qqcc^<LL 16qqa/	.
.	16qqddJJ 16qqb-/	.
*rep	*	*
!	!LO:TX:t=P:problem=diminuendolike accent	!
16C\LL	8cc^<L 8a/)	.
16c\	.	.
16G\	16b-Jk 16g/	.
16c\JJ	16r	.
*Xrep	*	*
=56	=56	=56
*rep	*	*
.	(>8qb- 8qg/	.
16C\LL	8ggL 8b-\)	.
16c\	.	.
16G\	16eeL 16g'>\	.
16c\JJ	16eeJJ 16g'>\	.
16C\LL	16ccLL 16e/	.
16c\	16r	.
16G\	16b-JJ 16g/	.
16c\JJ	16r	.
*Xrep	*	*
=57	=57	=57
16F\LL	16a|<LL 16f/	.
16c\	16r	.
16A\	16cc|<JJ 16a/	.
16c\JJ	16r	.
*rep	*	*
16F\LL	(>8dd^<L 8b-\	.
16c\	.	.
16A\	16ccJk 16a\)	.
16c\JJ	16r	.
*Xrep	*	*
!!LO:LB:g=original
=58	=58	=58
.	(>8qcc 8qa/	.
16F\LL	8aaL 8cc\)	.
16c\	.	.
16A\	16ggL 16b-'>\	.
16c\JJ	16ggJJ 16b-'>\	.
16F\LL	16ff 16a'>\	.
16c\	16r	.
16A\	16cc|> 16a\	.
16c\JJ	16r	.
=59	=59	=59
8B- 8BB-\	16dd|> 16b-\	.
.	16r	.
8r	(>16aaLL 16cc#X\	.
.	16bb-JJ 16dd\)	.
8c 8A 8F 8C\	16ccn|> 16a\	.
.	16r	.
8r	(>16gg#XLL 16bn\	.
.	16aaJJ 16cc\)	.
=60	=60	=60
*>C1	*>C1	*
!	!LO:TX:a:i:t=Ima	!
8c 8G 8E 8C\	16cc|> 16b-X 16g\	.
.	16r	.
8r	16aaLL 16cc\	.
.	16ggJJ 16b-\	.
8c 8A 8F\	8ff 8a\	.
8r	8r	.
=61:|!	=61:|!	=61:|!
*>C2	*>C2	*
*^	*	*
!	!	!LO:TX:a:i:t=2a	!
8c 8G 8E 8C\	4ryy	16cc 16b- 16g\	.
.	.	16r	.
8r	.	16ff#XLL 16a\	.
.	.	16ggJJ 16b-\	.
!	!	!	!LO:DY:b:rj
4F/	8F\L	16ffn^<LL 16fn'>\	f
.	.	16aa^<J 16a'>\	.
.	8cJ 8A\	8ccc^<J 8cc'>\	.
*v	*v	*	*
!!LO:LB:g=original
=62	=62	=62
*>D	*>D	*
!	!	!LO:DY:b:rj
8B- 8BB-\	16dd 16b-'>\	p
.	16r	.
8r	(>16aaLL 16cc#X\	.
.	16bb-JJ 16dd\)	.
8c 8A 8F 8C\	16cc# 16a\	.
.	16r	.
8r	(>16gg#XLL 16bn\	.
.	16aaJJ 16cc#\)	.
=63	=63	=63
16c 16G 16E 16C\	16cc\ 16b-X\ 16g\	.
16r	16r	.
8c 8C\L	(>16aaLL 16cc\	.
.	16ggJJ 16b-\)	.
!	!	!LO:DY:b:rj
8c 8F\J	8ff|> 8a\	f
8r;>	8r;>	.
==	==	==
*-	*-	*-
!!!system-decoration: {(s1,s2)}
!!!RDF**kern: | = vertical stroke
!!!RDF**kern: > = above
!!!RDF**kern: < = below
!!!EED: Antoni Szymański
!!!EEV: 2021-05-05
!!!ENC: Berenika Jozajtis
!!!END: 2021-04-10
